src/icon/goa-panel-symbolic.svg

<?xml version="1.0" encoding="UTF-8"?>
<svg height="16px" viewBox="0 0 16 16" width="16px" xmlns="http://www.w3.org/2000/svg">
    <path d="m 7.664062 0.0078125 c -2.613281 0.1093755 -5.003906 1.4882815 -6.410156 3.6953125 c -1.90625 3 -1.605468 6.898437 0.734375 9.574219 c 2.347657 2.667968 6.175781 3.472656 9.398438 1.96875 c 0.5 -0.234375 0.71875 -0.828125 0.484375 -1.328125 s -0.828125 -0.71875 -1.332032 -0.484375 c -2.414062 1.132812 -5.289062 0.53125 -7.046874 -1.476563 c -1.761719 -2.003906 -1.988282 -4.933593 -0.550782 -7.179687 c 1.429688 -2.253906 4.179688 -3.289063 6.738282 -2.539063 c 2.5625 0.746094 4.324218 3.09375 4.320312 5.761719 v 0.039062 v 0.960938 c 0 0.359375 -0.1875 0.683594 -0.5 0.863281 c -0.308594 0.179688 -0.6875 0.179688 -1 0 c -0.308594 -0.175781 -0.5 -0.507812 -0.5 -0.863281 v -1 c 0 -2.199219 -1.800781 -4 -4 -4 c -2.195312 0 -4 1.800781 -4 4 c 0 2.195312 1.804688 4 4 4 c 1.046875 0 1.992188 -0.417969 2.707031 -1.078125 c 0.222657 0.265625 0.488281 0.496094 0.792969 0.675781 c 0.929688 0.535156 2.074219 0.535156 3 0 c 0.929688 -0.539062 1.5 -1.527344 1.5 -2.597656 v -1 c 0 -3.558594 -2.347656 -6.683594 -5.761719 -7.683594 c -0.835937 -0.2421872 -1.703125 -0.347656 -2.574219 -0.3085935 z m 0.335938 5.9921875 c 1.117188 0 2 0.882812 2 2 c 0 1.113281 -0.882812 2 -2 2 c -1.113281 0 -2 -0.886719 -2 -2 c 0 -1.117188 0.886719 -2 2 -2 z m 0 0" fill="#2e3436"/>
</svg>

<svg xmlns="http://www.w3.org/2000/svg" width="16" height="16"><path style="line-height:normal;font-variant-ligatures:normal;font-variant-position:normal;font-variant-caps:normal;font-variant-numeric:normal;font-variant-alternates:normal;font-feature-settings:normal;text-indent:0;text-align:start;text-decoration-line:none;text-decoration-style:solid;text-decoration-color:#000;text-transform:none;text-orientation:mixed;white-space:normal;shape-padding:0;isolation:auto;mix-blend-mode:normal;solid-color:#000;solid-opacity:1" d="M7.662.008a8.007 8.007 0 00-6.41 3.695 8.009 8.009 0 00.736 9.574 8.006 8.006 0 009.397 1.971 1 1 0 10-.846-1.812 5.993 5.993 0 01-7.049-1.479 5.99 5.99 0 01-.55-7.18A5.99 5.99 0 019.677 2.24 5.991 5.991 0 0114 8a1 1 0 000 .041V9a.994.994 0 01-.5.865.993.993 0 01-1 0A.995.995 0 0112 9V8c0-2.197-1.803-4-4-4S4 5.803 4 8s1.803 4 4 4c1.044 0 1.99-.416 2.705-1.078.222.265.487.498.795.676a3.004 3.004 0 003 0A3.003 3.003 0 0016 9V8A8.008 8.008 0 0010.238.318a7.983 7.983 0 00-2.576-.31zM8 6c1.117 0 2 .884 2 2s-.883 2-2 2c-1.116 0-2-.884-2-2s.884-2 2-2z" color="#000" font-weight="400" font-family="sans-serif" overflow="visible" fill="#2e3436"/></svg>
